Numix-Circle/48/applications/liveusb-creator.svg

<?xml version="1.0" encoding="UTF-8" standalone="no"?>
<svg
   xmlns:dc="http://purl.org/dc/elements/1.1/"
   xmlns:cc="http://creativecommons.org/ns#"
   xmlns:rdf="http://www.w3.org/1999/02/22-rdf-syntax-ns#"
   xmlns:svg="http://www.w3.org/2000/svg"
   xmlns="http://www.w3.org/2000/svg"
   xmlns:xlink="http://www.w3.org/1999/xlink"
   xmlns:sodipodi="http://sodipodi.sourceforge.net/DTD/sodipodi-0.dtd"
   xmlns:inkscape="http://www.inkscape.org/namespaces/inkscape"
   width="48"
   viewBox="0 0 13.546667 13.546667"
   height="48"
   id="svg2"
   version="1.1"
   inkscape:version="0.48.4 r9939"
   sodipodi:docname="liveusb-creator.svg">
  <metadata
     id="metadata28">
    <rdf:RDF>
      <cc:Work
         rdf:about="">
        <dc:format>image/svg+xml</dc:format>
        <dc:type
           rdf:resource="http://purl.org/dc/dcmitype/StillImage" />
        <dc:title />
      </cc:Work>
    </rdf:RDF>
  </metadata>
  <sodipodi:namedview
     pagecolor="#ffffff"
     bordercolor="#666666"
     borderopacity="1"
     objecttolerance="10"
     gridtolerance="10"
     guidetolerance="10"
     inkscape:pageopacity="0"
     inkscape:pageshadow="2"
     inkscape:window-width="1366"
     inkscape:window-height="742"
     id="namedview26"
     showgrid="false"
     inkscape:zoom="25.977229"
     inkscape:cx="25.22034"
     inkscape:cy="24"
     inkscape:window-x="0"
     inkscape:window-y="26"
     inkscape:window-maximized="1"
     inkscape:current-layer="svg2" />
  <defs
     id="defs4">
    <linearGradient
       id="linearGradient4460">
      <stop
         offset="0"
         style="stop-color:#3b5892;stop-opacity:1;"
         id="stop7" />
      <stop
         offset="1"
         style="stop-color:#458de1;stop-opacity:1;"
         id="stop9" />
    </linearGradient>
    <linearGradient
       gradientTransform="matrix(1.10525,0,0,1.10525,-134.27874,-295.76183)"
       xlink:href="#linearGradient4460"
       id="linearGradient3006"
       y1="279.096"
       y2="268.33"
       gradientUnits="userSpaceOnUse"
       x2="0" />
    <linearGradient
       inkscape:collect="always"
       xlink:href="#linearGradient4460-6"
       id="linearGradient3007"
       gradientUnits="userSpaceOnUse"
       gradientTransform="matrix(1.10525,0,0,1.10525,-134.27874,-295.76183)"
       y1="279.09601"
       x2="0"
       y2="268.32999" />
    <linearGradient
       x2="0"
       gradientUnits="userSpaceOnUse"
       y2="268.33"
       y1="279.096"
       id="linearGradient3019"
       xlink:href="#linearGradient4460-6"
       gradientTransform="matrix(1.10525,0,0,1.10525,-134.27874,-295.76183)" />
    <linearGradient
       id="linearGradient4460-6">
      <stop
         id="stop2997"
         style="stop-color:#002f56"
         offset="0" />
      <stop
         id="stop2999"
         style="stop-color:#005092"
         offset="1" />
    </linearGradient>
  </defs>
  <rect
     id="rect14"
     style="opacity:0.5;fill:#ffffff;fill-rule:evenodd"
     height="12.982"
     rx="6.4910002"
     y="0.28299999"
     x="0.28200001"
     width="12.982" />
  <rect
     id="rect16"
     style="fill:url(#linearGradient3007);fill-rule:evenodd;fill-opacity:1.0"
     height="11.853"
     rx="5.927"
     y="0.847"
     x="0.847"
     width="11.853" />
  <path
     style="fill:#f9f9f9;fill-opacity:1"
     d="M 18.8125,11 C 17.80704,11 17,11.651832 17,12.46875 l 0,19.8125 c 0,0.816942 0.80704,1.46875 1.8125,1.46875 l 10.375,0 C 30.192963,33.75 31,33.098192 31,32.28125 l 0,-19.8125 C 31,11.651832 30.192963,11 29.1875,11 z m 8.40625,4 c 0.351383,0 0.580981,0.04451 0.90625,0.125 0.474289,0.117439 0.874839,0.478494 0.875,0.90625 0,0.517097 -0.406769,0.90625 -1,0.90625 -0.282345,0 -0.367621,-0.0625 -0.78125,-0.0625 -1.221084,0 -2.216609,0.93886 -2.21875,2.09375 l 0,1.8125 c 0,0.163169 0.139856,0.28125 0.3125,0.28125 l 1.4375,0 c 0.541826,0 1,0.423585 1,0.9375 2.95e-4,0.517061 -0.452324,0.9375 -1,0.9375 l -1.78125,0 0,2.09375 C 24.96875,27.221835 23.097357,29 20.78125,29 20.429864,29 20.200271,28.955486 19.875,28.875 19.40071,28.757561 19.000162,28.396653 19,27.96875 c 0,-0.517061 0.406768,-0.90625 1,-0.90625 0.282345,0 0.36762,0.0625 0.78125,0.0625 1.221081,0 2.216608,-0.938897 2.21875,-2.09375 l 0,-1.8125 C 23,23.055581 22.860144,22.9375 22.6875,22.9375 l -1.4375,0 c -0.541828,0 -1,-0.423622 -1,-0.9375 -2.95e-4,-0.516988 0.452322,-0.9375 1,-0.9375 l 1.78125,0 0,-2.09375 C 23.03125,16.778165 24.902643,15 27.21875,15 z m -3.125,16.771736 C 23.955788,31.973239 23.818622,32.052486 23.75,32.125 l 1.638536,0.346457 1.217358,-0.913933 z"
     transform="scale(0.28222223,0.28222223)"
     id="path20"
     inkscape:connector-curvature="0"
     sodipodi:nodetypes="ssssssssssccsscssscscssccsscssscscssccccc" />
  <path
     inkscape:connector-curvature="0"
     style="fill:#f9f9f9;fill-opacity:1"
     id="path22"
     d="m 5.3622479,9.2946466 0,1.1465194 2.8222273,0 0,-1.1465194 -2.8222273,0 z m 0.2822228,0.4586066 0.5644456,0 0,0.4586138 -0.5644456,0 0,-0.4586138 z m 1.6933369,0 0.5644456,0 0,0.4586138 -0.5644456,0 0,-0.4586138 z" />
</svg>

<?xml version="1.0" encoding="UTF-8" standalone="no"?>
<svg
   xmlns:dc="http://purl.org/dc/elements/1.1/"
   xmlns:cc="http://creativecommons.org/ns#"
   xmlns:rdf="http://www.w3.org/1999/02/22-rdf-syntax-ns#"
   xmlns:svg="http://www.w3.org/2000/svg"
   xmlns="http://www.w3.org/2000/svg"
   xmlns:xlink="http://www.w3.org/1999/xlink"
   xmlns:sodipodi="http://sodipodi.sourceforge.net/DTD/sodipodi-0.dtd"
   xmlns:inkscape="http://www.inkscape.org/namespaces/inkscape"
   width="48"
   viewBox="0 0 13.546667 13.546667"
   height="48"
   id="svg2"
   version="1.1"
   inkscape:version="0.48.4 r9939"
   sodipodi:docname="unetbootin.svg">
  <metadata
     id="metadata28">
    <rdf:RDF>
      <cc:Work
         rdf:about="">
        <dc:format>image/svg+xml</dc:format>
        <dc:type
           rdf:resource="http://purl.org/dc/dcmitype/StillImage" />
        <dc:title></dc:title>
      </cc:Work>
    </rdf:RDF>
  </metadata>
  <sodipodi:namedview
     pagecolor="#ffffff"
     bordercolor="#666666"
     borderopacity="1"
     objecttolerance="10"
     gridtolerance="10"
     guidetolerance="10"
     inkscape:pageopacity="0"
     inkscape:pageshadow="2"
     inkscape:window-width="1366"
     inkscape:window-height="742"
     id="namedview26"
     showgrid="false"
     inkscape:zoom="4.9166667"
     inkscape:cx="24.81356"
     inkscape:cy="24"
     inkscape:window-x="0"
     inkscape:window-y="26"
     inkscape:window-maximized="1"
     inkscape:current-layer="svg2" />
  <defs
     id="defs4">
    <linearGradient
       id="linearGradient4460">
      <stop
         offset="0"
         style="stop-color:#3b5892;stop-opacity:1;"
         id="stop7" />
      <stop
         offset="1"
         style="stop-color:#458de1;stop-opacity:1;"
         id="stop9" />
    </linearGradient>
    <linearGradient
       gradientTransform="matrix(1.10525,0,0,1.10525,-134.27874,-295.76183)"
       xlink:href="#linearGradient4460"
       id="linearGradient3006"
       y1="279.096"
       y2="268.33"
       gradientUnits="userSpaceOnUse"
       x2="0" />
    <linearGradient
       inkscape:collect="always"
       xlink:href="#linearGradient4460-6"
       id="linearGradient3007"
       gradientUnits="userSpaceOnUse"
       gradientTransform="matrix(1.10525,0,0,1.10525,-134.27874,-295.76183)"
       y1="279.09601"
       x2="0"
       y2="268.32999" />
    <linearGradient
       x2="0"
       gradientUnits="userSpaceOnUse"
       y2="268.33"
       y1="279.096"
       id="linearGradient3019"
       xlink:href="#linearGradient4460-6"
       gradientTransform="matrix(1.10525,0,0,1.10525,-134.27874,-295.76183)" />
    <linearGradient
       id="linearGradient4460-6">
      <stop
         id="stop2997"
         style="stop-color:#002f56"
         offset="0" />
      <stop
         id="stop2999"
         style="stop-color:#005092"
         offset="1" />
    </linearGradient>
  </defs>
  <rect
     id="rect14"
     style="opacity:0.5;fill:#ffffff;fill-rule:evenodd"
     height="12.982"
     rx="6.4910002"
     y="0.28299999"
     x="0.28200001"
     width="12.982" />
  <rect
     id="rect16"
     style="fill:url(#linearGradient3007);fill-rule:evenodd;fill-opacity:1.0"
     height="11.853"
     rx="5.927"
     y="0.847"
     x="0.847"
     width="11.853" />
  <path
     style="fill:#f9f9f9;fill-opacity:1"
     d="M 18.8125 11 C 17.80704 11 17 11.651832 17 12.46875 L 17 32.28125 C 17 33.098192 17.80704 33.75 18.8125 33.75 L 29.1875 33.75 C 30.192963 33.75 31 33.098192 31 32.28125 L 31 12.46875 C 31 11.651832 30.192963 11 29.1875 11 L 18.8125 11 z M 27.21875 15 C 27.570133 15 27.799731 15.044514 28.125 15.125 C 28.599289 15.242439 28.999839 15.603494 29 16.03125 C 29 16.548347 28.593231 16.9375 28 16.9375 C 27.717655 16.9375 27.632379 16.875 27.21875 16.875 C 25.997666 16.875 25.002141 17.81386 25 18.96875 L 25 20.78125 C 25 20.944419 25.139856 21.0625 25.3125 21.0625 L 26.75 21.0625 C 27.291826 21.0625 27.75 21.486085 27.75 22 C 27.750295 22.517061 27.297676 22.9375 26.75 22.9375 L 24.96875 22.9375 L 24.96875 25.03125 C 24.96875 27.221835 23.097357 29 20.78125 29 C 20.429864 29 20.200271 28.955486 19.875 28.875 C 19.40071 28.757561 19.000162 28.396653 19 27.96875 C 19 27.451689 19.406768 27.0625 20 27.0625 C 20.282345 27.0625 20.36762 27.125 20.78125 27.125 C 22.002331 27.125 22.997858 26.186103 23 25.03125 L 23 23.21875 C 23 23.055581 22.860144 22.9375 22.6875 22.9375 L 21.25 22.9375 C 20.708172 22.9375 20.25 22.513878 20.25 22 C 20.249705 21.483012 20.702322 21.0625 21.25 21.0625 L 23.03125 21.0625 L 23.03125 18.96875 C 23.03125 16.778165 24.902643 15 27.21875 15 z M 24.09375 31.65625 C 23.955788 31.857753 23.818622 32.052486 23.75 32.125 L 23.65625 32.125 L 23.71875 31.75 L 24.09375 31.65625 z "
     transform="scale(0.28222223,0.28222223)"
     id="path20" />
  <path
     inkscape:connector-curvature="0"
     style="fill:#f9f9f9;fill-opacity:1"
     id="path22"
     d="m 5.3622479,9.2946466 0,1.1465194 2.8222273,0 0,-1.1465194 -2.8222273,0 z m 0.2822228,0.4586066 0.5644456,0 0,0.4586138 -0.5644456,0 0,-0.4586138 z m 1.6933369,0 0.5644456,0 0,0.4586138 -0.5644456,0 0,-0.4586138 z" />
</svg>
